X: 05005
T: ANNE'S WALTZ
C: Bob McQuillen 4 Oct 80
B: Bob's Note Book 05 #5
%R: 3/4
Z: 2020 John Chambers <jc:trillian.mit.edu>
M: 3/4
L: 1/4
K: Bm
F \
| B2F | Bd>B | A>BA | F2f/e/ | dB>A | Bde | f3 | F2F |\
| B2F | Bde | fab | a>fe | d>ed | c2A | B3 | B2 :|
|: a \
| af>a | baf | a>ba | f2b | af>e | def | e>cA | A2a |\
| a>fa | baf | d>ef | ecA | d>cB | AFA | B3 | B3 :|
%%begintext align
%% With love
%% to Anne Thomas - I think a flute
%% player's wife needs a tune of her own,
%% don't you?
%%endtext

% %newpage
% %vskip 5.1cm
% %center --- 05006 spacer ---
% %sep 1 1 500

%%sep 1 1 500

%%sep 1 1 500

